static/images/partners/google-pay.svg

<svg height="102" preserveAspectRatio="xMidYMid" viewBox="0 0 256 102" width="256" xmlns="http://www.w3.org/2000/svg"><path d="m121.003082 49.7959599v29.7813115h-9.447864v-73.54663577h25.057379c6.041196-.1261936 11.882523 2.16597276 16.22568 6.36703897 4.394275 3.9526009 6.865473 9.6117517 6.777816 15.5214914.125859 5.9427479-2.349742 11.6441326-6.777816 15.609515-4.381618 4.178186-9.790178 6.2653229-16.22568 6.2614107h-15.609515zm0-34.7106319v25.6735443h15.844245c3.512252.1041086 6.905842-1.2763346 9.348104-3.8026187 2.427444-2.3600188 3.796982-5.6016243 3.796982-8.9872076 0-3.3855832-1.369538-6.6271887-3.796982-8.9872075-2.412642-2.5805781-5.816763-4.0016332-9.348104-3.9023788h-15.844245zm60.384177 12.5286896c6.983204 0 12.495436 1.8660999 16.536696 5.5982997 4.041261 3.7321999 6.059935 8.849304 6.056023 15.3513125v31.0136416h-9.037088v-6.9832041h-.410777c-3.912159 5.750874-9.115331 8.6263109-15.609515 8.6263109-5.543529 0-10.181394-1.6431068-13.913594-4.9293205-3.627359-3.0545864-5.684053-7.5819005-5.598299-12.3233013 0-5.2070838 1.967816-9.3481042 5.903448-12.4230613s9.189662-4.6163478 15.762089-4.6241721c5.610036 0 10.230296 1.0269417 13.86078 3.0808253v-2.1595119c.021664-3.2321531-1.411266-6.3027166-3.902379-8.3622401-2.498424-2.2541194-5.75448-3.4840453-9.119243-3.4446561-5.277503 0-9.453733 2.2260185-12.52869 6.6780556l-8.321162-5.2403372c4.577226-6.5724273 11.35113-9.858641 20.321711-9.858641zm-12.223542 36.5591272c-.012852 2.4396694 1.154511 4.7350462 3.13364 6.1616506 2.08955 1.6436641 4.683088 2.5143963 7.341166 2.4646603 3.986854-.0066626 7.808473-1.5935525 10.627381-4.4129155 3.129727-2.9458559 4.694591-6.4022485 4.694591-10.3691778-2.945856-2.3472955-7.053623-3.5209433-12.323302-3.5209433-3.837828 0-7.037974.9252257-9.600438 2.775677-2.587893 1.8778363-3.873038 4.1605812-3.873038 6.9010487zm86.691491-34.9160204-31.547652 72.5020896h-9.753012l11.707136-25.3683962-20.744224-47.1336934h10.269418l14.99335 36.1483505h.205388l14.582573-36.1483505z" fill="#5f6368"/><path d="m82.8243212 43.3761068c.0035626-2.8792398-.2398838-5.753478-.7276616-8.5911015h-39.8453409v16.272626h22.8215804c-.9436651 5.2517924-3.9920272 9.8900512-8.4385273 12.8397063v10.5628296h13.620182c7.9749365-7.3529031 12.5697674-18.2267494 12.5697674-31.0840604z" fill="#4285f4"/><path d="m42.2513187 84.6650344c11.4019878 0 21.0024264-3.7439363 28.0032351-10.1989989l-13.620182-10.5628297c-3.7908822 2.5702886-8.6732568 4.0373482-14.3830531 4.0373482-11.0205523 0-20.3745248-7.4291902-23.7194209-17.4404054h-14.03095871v10.8855828c7.17189081 14.2713043 21.77833711 23.278575 37.75037961 23.279303z" fill="#34a853"/><path d="m18.5318978 50.5001486c-1.7683265-5.2459449-1.7683265-10.926921 0-16.1728659v-10.8855828h-14.03095871c-5.99868462 11.9367481-5.99868462 26.0072834 0 37.9440315z" fill="#fbbc04"/><path d="m42.2513187 16.8868772c6.0254343-.0984396 11.8476033 2.1781507 16.2080753 6.3376979l12.0592306-12.0592306c-7.6468078-7.1822793-17.7771299-11.12547089-28.2673059-11.00294758-15.9720425.00072794-30.5784888 9.00799866-37.75037961 23.27930298l14.03095871 10.8855828c3.3448961-10.0112152 12.6988686-17.4404055 23.7194209-17.4404055z" fill="#ea4335"/></svg>

<?xml version="1.0" encoding="UTF-8"?>
<svg width="256px" height="102px" viewBox="0 0 256 102" version="1.1" xmlns="http://www.w3.org/2000/svg" xmlns:xlink="http://www.w3.org/1999/xlink" preserveAspectRatio="xMidYMid">
		<g>
				<path d="M121.003082,49.7959599 L121.003082,79.5772714 L111.555218,79.5772714 L111.555218,6.03063563 L136.612597,6.03063563 C142.653793,5.90444203 148.49512,8.19660839 152.838277,12.3976746 C157.232552,16.3502755 159.70375,22.0094263 159.616093,27.919166 C159.741952,33.8619139 157.266351,39.5632986 152.838277,43.528681 C148.456659,47.706867 143.048099,49.7940039 136.612597,49.7900917 L121.003082,49.7900917 L121.003082,49.7959599 Z M121.003082,15.085328 L121.003082,40.7588723 L136.847327,40.7588723 C140.359579,40.8629809 143.753169,39.4825377 146.195431,36.9562536 C148.622875,34.5962348 149.992413,31.3546293 149.992413,27.969046 C149.992413,24.5834628 148.622875,21.3418573 146.195431,18.9818385 C143.782789,16.4012604 140.378668,14.9802053 136.847327,15.0794597 L121.003082,15.0794597 L121.003082,15.085328 Z M181.387259,27.6140176 C188.370463,27.6140176 193.882695,29.4801175 197.923955,33.2123173 C201.965216,36.9445172 203.98389,42.0616213 203.979978,48.5636298 L203.979978,79.5772714 L194.94289,79.5772714 L194.94289,72.5940673 L194.532113,72.5940673 C190.619954,78.3449413 185.416782,81.2203782 178.922598,81.2203782 C173.379069,81.2203782 168.741204,79.5772714 165.009004,76.2910577 C161.381645,73.2364713 159.324951,68.7091572 159.410705,63.9677564 C159.410705,58.7606726 161.378521,54.6196522 165.314153,51.5446951 C169.249785,48.469738 174.503815,46.9283473 181.076242,46.920523 C186.686278,46.920523 191.306538,47.9474647 194.937022,50.0013483 L194.937022,47.8418364 C194.958686,44.6096833 193.525756,41.5391198 191.034643,39.4795963 C188.536219,37.2254769 185.280163,35.995551 181.9154,36.0349402 C176.637897,36.0349402 172.461667,38.2609587 169.38671,42.7129958 L161.065548,37.4726586 C165.642774,30.9002313 172.416678,27.6140176 181.387259,27.6140176 Z M169.163717,64.1731448 C169.150865,66.6128142 170.318228,68.908191 172.297357,70.3347954 C174.386907,71.9784595 176.980445,72.8491917 179.638523,72.7994557 C183.625377,72.7927931 187.446996,71.2059032 190.265904,68.3865402 C193.395631,65.4406843 194.960495,61.9842917 194.960495,58.0173624 C192.014639,55.6700669 187.906872,54.4964191 182.637193,54.4964191 C178.799365,54.4964191 175.599219,55.4216448 173.036755,57.2720961 C170.448862,59.1499324 169.163717,61.4326773 169.163717,64.1731448 Z M255.855208,29.2571244 L224.307556,101.759214 L214.554544,101.759214 L226.26168,76.3908178 L205.517456,29.2571244 L215.786874,29.2571244 L230.780224,65.4054749 L230.985612,65.4054749 L245.568185,29.2571244 L255.855208,29.2571244 Z" fill="#5F6368" fill-rule="nonzero"></path>
				<g>
						<path d="M82.8243212,43.3761068 C82.8278838,40.496867 82.5844374,37.6226288 82.0966596,34.7850053 L42.2513187,34.7850053 L42.2513187,51.0576313 L65.0728991,51.0576313 C64.129234,56.3094237 61.0808719,60.9476825 56.6343718,63.8973376 L56.6343718,74.4601672 L70.2545538,74.4601672 C78.2294903,67.1072641 82.8243212,56.2334178 82.8243212,43.3761068 Z" fill="#4285F4"></path>
						<path d="M42.2513187,84.6650344 C53.6533065,84.6650344 63.2537451,80.9210981 70.2545538,74.4660355 L56.6343718,63.9032058 C52.8434896,66.4734944 47.961115,67.940554 42.2513187,67.940554 C31.2307664,67.940554 21.8767939,60.5113638 18.5318978,50.5001486 L4.50093909,50.5001486 L4.50093909,61.3857314 C11.6728299,75.6570357 26.2792762,84.6643064 42.2513187,84.6650344 Z" fill="#34A853"></path>
						<path d="M18.5318978,50.5001486 C16.7635713,45.2542037 16.7635713,39.5732276 18.5318978,34.3272827 L18.5318978,23.4416999 L4.50093909,23.4416999 C-1.49774553,35.378448 -1.49774553,49.4489833 4.50093909,61.3857314 L18.5318978,50.5001486 Z" fill="#FBBC04"></path>
						<path d="M42.2513187,16.8868772 C48.276753,16.7884376 54.098922,19.0650279 58.459394,23.2245751 L70.5186246,11.1653445 C62.8718168,3.9830652 52.7414947,0.0398736052 42.2513187,0.162396916 C26.2792762,0.163124858 11.6728299,9.17039558 4.50093909,23.4416999 L18.5318978,34.3272827 C21.8767939,24.3160675 31.2307664,16.8868772 42.2513187,16.8868772 Z" fill="#EA4335"></path>
				</g>
		</g>
</svg>
